packages/core/src/svgs/vtc.svg

<svg width="24" height="24" viewBox="0 0 24 24" fill="none" xmlns="http://www.w3.org/2000/svg">
<g clip-path="url(#clip0_31_20541)">
<path d="M0 0H24V24H0V0Z" fill="#35633E"/>
<path d="M5.88083 11.1429H9.22026L10.9405 13.4713L9.29312 15.8246L5.88083 11.1429ZM6.00426 12.4286H4.88354L5.48354 11.5942L5.99269 12.4286H6.00383H6.00426ZM9.64626 16.3007L12.0274 12.894L17.373 5.28516C18.0444 5.89202 18.6204 6.59666 19.0817 7.3753L19.0761 7.47601L11.6914 17.9537C11.6448 18.0172 11.5841 18.0691 11.5141 18.1051C11.4441 18.1412 11.3666 18.1605 11.2879 18.1616C11.2091 18.1627 11.1312 18.1455 11.0602 18.1114C10.9892 18.0772 10.9272 18.0271 10.8788 17.9649L9.64626 16.3007Z" fill="white"/>
</g>
<defs>
<clipPath id="clip0_31_20541">
<rect width="24" height="24" fill="white"/>
</clipPath>
</defs>
</svg>

<svg xmlns="http://www.w3.org/2000/svg" width="24" height="24" fill="none" viewBox="0 0 24 24"><g clip-path="url(#a)"><path fill="#35633E" d="M0 0h24v24H0z"/><path fill="#fff" d="M5.88 11.143h3.34l1.72 2.328-1.647 2.354zm.124 1.286h-1.12l.6-.835.509.835zM9.646 16.3l2.381-3.407 5.346-7.609a9 9 0 0 1 1.709 2.09l-.006.101-7.385 10.478a.51.51 0 0 1-.812.01z"/></g><defs><clipPath id="a"><path fill="#fff" d="M0 0h24v24H0z"/></clipPath></defs></svg>
